X: 1444
T: Ne Yapsam Neylesem
C: Hacı Fâik Bey
O: Turkey
F: http://compmusic.upf.edu/node/140
N: yegah--sarki--curcuna--ne_yapsam--haci_faik_bey
N: makam= yegah
N: form= sarki
N: usul= curcuna = 10/8
M: 10/8
L: 1/16
K: C _2/4B ^f  
Q: 1/4=180
%%MIDI tuningsystem comma53
A4 d2^3/4c2 d2e4^3/4f4e2  | d4 a2g2 ^3/4f2e2 g2f6  | \
w:  ARANAĞME  |   | 
d4 c'2_1/4b2 a2a2 g2^3/4f2 e2d2  | 
w:   | 
e2^3/4f2 g2f2 e2d2 ^3/4c2d6  | ^3/4c2d2 e2^3/4f2 g2a2 g2f2 e2d2  | \
w:   |   | 
c2d2 =f2e2 d2c2 B2A6  | 
w:   | 
A4 e2d4c2 B2B2 A2G2  | A2=B2 c2B2 A2A2 G2^3/4F6  | \
w:   |   | 
E2^3/4F2 G2A2 =B2A2 G2F2 E2D2  | 
w:   | 
E4 G2^3/4F2 E2D2 ^3/4C2D4z2  | A4 d2^3/4c2 d2e4^3/4f4e2  | \
w:   |  ARANAĞME  | 
d4 a2g2 ^3/4f2e2 g2f6  | 
w:   | 
d4 c'2_1/4b2 a2a2 g2^3/4f2 e2d2  | \
w:   | 
e2^3/4f2 g2f2 e2d2 ^3/4c2d6  | ^3/4c2d2 e2^3/4f2 g2a2 g2f2 e2d2  | 
w:   |   | 
c2d2 =f2e2 d2c2 B2A6  | A4 e2d4c2 B2B2 A2G2  | \
w:   |   | 
A2=B2 c2B2 A2A2 G2^3/4F6  | 
w:   | 
E2^3/4F2 G2A2 =B2A2 G2F2 E2D2  | E4 G2^3/4F2 E2D2 ^3/4C2D4z2  | \
w:   |   | 
z4 A2d4d8-d2  | 
w:  Ne  yap sam   | 
e4 =f2e2 d2d2 ^3/4c2d4z2  | =B2^3/4c2 B4 c2d4e4d2  | \
w:  ney *  le *  sem   |  bu  *  *  *  hal_  | 
g2=f2 e4 d2c2 d2c4B2  | 
w:  i  *  zâ *  re    | 
z4 B2d4d4c4B2  | e4 d2d2 c2c2 B2A4B2  | \
w:  Ne  yap sam   |  ney *  le *  sem   | 
A8 G2^3/4c2 d2e4d2  | g2=f2 e2d2 ^3/4c2d8-d2  | 
w:  bu  *  hal_  |  i  *  zâ *  *  re    | 
z4 =f2e2 d2e2 ^3/4c2d6  | z4 c2d4d4c4B2  | \
w:  SAZ  |  Ta ham mül   | 
e4 d2d2 c2c4B4A2  | A8 B2c4B4A2  | 
w:  kal *  ma *  dı   |  bu  *  kil_  | 
A4 A4 B2A2 G2^3/4F6  | z4 E2^3/4F4G4{A}G4F2  | \
w:  ü  kaa *  le    |  Ta ham mül   | 
=B4 A2A2 B2A2 G2^3/4F2 E2D2  | 
w:  kal *  ma *  dı   | 
E2^3/4F2 E4 F2G4F2 E2D2  | E2^3/4F2 E2D2 ^3/4C2D8-D2  | \
w:  bu  *  *  *  kil_  |  ü  *  kaa *  *  le    | 
z4 a2g2 ^3/4f2^3/4e2 g2f6  | 
w:  SAZ  | 
z4 d2^3/4f4f2 ^3/4e2f6  | ^3/4e4 ^3/4f2g4f2 e2.f6  | \
w:  İ şim  her   |  dem  *  be nim   | 
e2^3/4f2 e2f4a4g4f2  | ^3/4f2e2 g2f2 e2e8-e2  | 
w:  fer *  *  *  yâd_  |  ü  *  nâ *  *  le    | 
z4 d2e4e2 d2e6  | e4 ^3/4f2g4f2 e2d6  | \
w:  İ şim  her   |  dem  *  be nim   | 
e2^3/4f2 e2f4a2 g2f2 e2d2  | 
w:  fer *  *  *  yâd_  | 
e2=f2 e2d2 ^3/4c2d8-d2  | z4 =f2e2 d2d2 ^3/4c2d6  | \
w:  ü  *  nâ *  *  le    |  SAZ  | 
z4 c2d4d4c4B2  | e4 d2d2 c2c4B4A2  | 
w:  Ta ham mül   |  kal *  ma *  dı   | 
A8 B2c4B4A2  | A4 A4 B2A2 G2^3/4F6  | \
w:  bu  *  kil_  |  ü  kaa *  le    | 
z4 E2^3/4F4G4{A}G4F2  | =B4 A2A2 B2A2 G2^3/4F2 E2D2  | 
w:  Ta ham mül   |  kal *  ma *  dı   | 
E2^3/4F2 E4 F2G4F2 E2D2  | E2^3/4F2 E2D2 ^3/4C2D8-D2  | |


